X: 159
T: You Should Give Up the Warpath
C: Teton Sioux band 1911-1914
N: Derived from sioux154.krn
O: South Dakota, U.S.A.
N: Teton Sioux Music by Frances Densmore, 1918
Z: transcribed to **kern format by Craig Sapp
L: 1/8
M: 3/4
Q: 1/4=58
K: Bb clef=treble
%%linebreak <none>
G D [I:setbarnb 1]| 
G4A/> G/ G | 
G< DD2D C | 
D4G/> D/ D[K:clef=bass] | 
D< CC2C B, | 
C4E/> C/ C | 
C< B, G, G, B, C ||  
[M:2/4]B,4 ||  
[M:3/4]C B, B,/> G,/ G,D,2 | 
B, B, G, B, G, G, ||  
[M:2/4]G,4 | 
G,4- | 
G,2D D ||  
[M:3/4]D2D G G/ D3/ | 
C2C2C B, ||  
[M:2/4]C2C3/ E/ ||  
[M:3/4]E C C B,G,2 | 
B, CB,2B,3/ C/ | 
(C B,) B, G,F,2 | 
B, B, G, B, G, G, ||  
[M:2/4]G,4 | 
G,4 |]  



